icon_installer/data/icons/scalable/actions/show-image-symbolic.svg

<?xml version="1.0" encoding="UTF-8"?>
<svg height="16px" viewBox="0 0 16 16" width="16px" xmlns="http://www.w3.org/2000/svg">
    <g fill="#2e3436">
        <path d="m 9.460938 7.046875 c -0.476563 0.003906 -0.953126 0.226563 -1.238282 0.667969 l -0.984375 1.507812 c -0.316406 0.484375 -0.855469 0.777344 -1.4375 0.777344 h -3.332031 v 1 h 3.332031 c 0.917969 0 1.773438 -0.464844 2.273438 -1.230469 l 0.988281 -1.507812 c 0.199219 -0.3125 0.613281 -0.316407 0.820312 -0.007813 l 1.03125 1.519532 c 0.511719 0.757812 1.371094 1.210937 2.285157 1.210937 h 0.269531 v -1 h -0.269531 c -0.585938 0 -1.132813 -0.289063 -1.460938 -0.773437 l -1.027343 -1.519532 c -0.292969 -0.433594 -0.773438 -0.648437 -1.25 -0.644531 z m 0 0"/>
        <path d="m 5.453125 3.886719 c -0.859375 0 -1.566406 0.707031 -1.566406 1.566406 s 0.707031 1.566406 1.566406 1.566406 s 1.566406 -0.707031 1.566406 -1.566406 s -0.707031 -1.566406 -1.566406 -1.566406 z m 0 0.996093 c 0.320313 0 0.570313 0.25 0.570313 0.570313 s -0.25 0.570313 -0.570313 0.570313 s -0.570313 -0.25 -0.570313 -0.570313 s 0.25 -0.570313 0.570313 -0.570313 z m 0 0"/>
        <path d="m 11.96875 3 c 0.570312 0 1.03125 0.460938 1.03125 1.03125 v 7.9375 c 0 0.570312 -0.460938 1.03125 -1.03125 1.03125 h -7.9375 c -0.570312 0 -1.03125 -0.460938 -1.03125 -1.03125 v -7.9375 c 0 -0.570312 0.460938 -1.03125 1.03125 -1.03125 z m -10.96875 1.03125 v 7.9375 c 0 1.679688 1.351562 3.03125 3.03125 3.03125 h 7.9375 c 1.679688 0 3.03125 -1.351562 3.03125 -3.03125 v -7.9375 c 0 -1.679688 -1.351562 -3.03125 -3.03125 -3.03125 h -7.9375 c -1.679688 0 -3.03125 1.351562 -3.03125 3.03125 z m 0 0"/>
    </g>
</svg>

<svg xmlns="http://www.w3.org/2000/svg" width="16" height="16"><g fill="#2e3436"><path d="M9.46 7.047a1.475 1.475 0 0 0-1.237.668l-.985 1.508A1.715 1.715 0 0 1 5.801 10H2.469v1H5.8c.918 0 1.773-.465 2.273-1.23l.989-1.508a.478.478 0 0 1 .82-.008l1.031 1.52a2.76 2.76 0 0 0 2.285 1.21h.27v-1h-.27a1.76 1.76 0 0 1-1.46-.773L10.71 7.69a1.482 1.482 0 0 0-1.25-.644zm-4.007-3.16c-.86 0-1.566.707-1.566 1.566S4.594 7.02 5.453 7.02 7.02 6.313 7.02 5.453s-.707-1.566-1.567-1.566zm0 .996c.32 0 .57.25.57.57s-.25.57-.57.57-.57-.25-.57-.57.25-.57.57-.57zm0 0"/><path d="M11.969 3C12.539 3 13 3.46 13 4.031v7.938c0 .57-.46 1.031-1.031 1.031H4.03A1.03 1.03 0 0 1 3 11.969V4.03C3 3.461 3.46 3 4.031 3zM1 4.031v7.938A3.024 3.024 0 0 0 4.031 15h7.938A3.024 3.024 0 0 0 15 11.969V4.03A3.024 3.024 0 0 0 11.969 1H4.03A3.024 3.024 0 0 0 1 4.031zm0 0"/></g></svg>
